X: 01066
T: LAURIE'S BIRD
C: Bob McQuillen Apr 75
B: Bob's Note Book 1 #66
%R: reel
Z: 2019 John Chambers <jc:trillian.mit.edu>
M: C
L: 1/8
K: G	% and Em
DE \
| G2G2 B3A | GFGA B2G2 | A2A2 c3B | ABAG F2D2 |
| G2G2 B3A | GFGA B2d2 | e2g2 fedc | B2G2 G2 :|
|: GF \
| E2EF GAGF | EFGA B2G2 | A2e2 c3B | ABcd e2c2 |
| B2Bc BAGF | EFGA B2e2 | cedc BAGF | G2E2 E2 :|
%%begintext align
%% With love and a special
%% BRAAAWKI to my
%% favorite Bodhran player.
%%endtext

%%sep 1 1 500

%%sep 1 1 500

